Obsidian-SemiLight/actions/16s/text-wrap.svg

<svg viewBox="0 0 16 16" xmlns="http://www.w3.org/2000/svg"><path d="m2 2v1h12v-1zm0 2v1h7v-1zm0 3v1h6v-1zm0 2v1h4v-1zm0 3v1h8v-1z" fill="#4d4d4d"/><path d="m9 7v1h1.5c1.385 0 2.5 1.115 2.5 2.5 0 .819-.396 1.545-1 2v-1.5h-1v3h3v-1h-1.0625c.658-.632 1.0625-1.51 1.0625-2.5 0-1.939-1.561-3.5-3.5-3.5h-.5z" fill="#1d99f3"/></svg>

<svg xmlns="http://www.w3.org/2000/svg" viewBox="0 0 16 16">
  <defs id="defs3051">
    <style type="text/css" id="current-color-scheme">
      .ColorScheme-Text {
        color:#4d4d4d;
      }
      </style>
  </defs>
 <path 
     style="fill:currentColor;fill-opacity:1;stroke:none" 
     d="M 2,2 2,3 14,3 14,2 Z M 2,4 2,5 9,5 9,4 Z M 2,7 2,8 8,8 8,7 Z m 0,2 0,1 4,0 0,-1 z m 0,3 0,1 8,0 0,-1 z"
     class="ColorScheme-Text"/>
  <path
     style="fill:#1d99f3"
     d="M 9 7 L 9 8 L 10.5 8 C 11.885 8 13 9.115 13 10.5 C 13 11.319 12.604 12.045 12 12.5 L 12 11 L 11 11 L 11 14 L 14 14 L 14 13 L 12.9375 13 C 13.5955 12.368 14 11.49 14 10.5 C 14 8.561 12.439 7 10.5 7 L 10 7 L 9 7 z "
      />
</svg>
